!!!!SEGMENT: pl-wtm--r-1607--002_stefani-jozef--requiem-dies-irae.krn
!!!id: 18xx:2357
!!!COM: Stefani, Józef
!!!COM-rism: pe30024097
!!!CDT: 1800/04/16-1876/03/19
!!!CNT: Polish
!!!OTL: Requiem – Dies irae
!!!PDT:
!!!SMS-siglum: PL-Wtm
!!!SMS-shelfmark: R 1607
!!!NIFC-rismID: 1001115431
!!!URL-scan: http://repozytorium.nifc.pl/skany/pl-wtm-nut--r1607
!!!ONB-nifc: UWAGA: części Requiem: 1. Requiem aeternam, 2. Dies irae, 3. Offertorium, 4. Sanctus, 5. Benedicuts, 6. Agnus Dei, 7. Salve Regina
!!!SMS-variant:
!!!SMS-altvar:
**kern	**kern	**kern	**text	**text	**dynam	**kern	**text	**text	**kern	**text	**text	**dynam
*part4	*part4	*part3	*part3	*part3	*part3	*part2	*part2	*part2	*part1	*part1	*part1	*part1
*staff5	*staff4	*staff3	*staff3	*staff3	*	*staff2	*staff2	*staff2	*staff1	*staff1	*staff1	*
*I"Organo	*I"Organo	*I"Basſo	*	*	*	*I"Tenore II°.	*	*	*I"Tenore 1mo	*	*	*
*>[A,B,B]	*>[A,B,B]	*>[A,B,B]	*>[A,B,B]	*>[A,B,B]	*>[A,B,B]	*>[A,B,B]	*>[A,B,B]	*>[A,B,B]	*>[A,B,B]	*>[A,B,B]	*>[A,B,B]	*>[A,B,B]
*>A	*>A	*>A	*>A	*>A	*>A	*>A	*>A	*>A	*>A	*>A	*>A	*>A
*clefF4	*clefG2	*clefF4	*	*	*	*clefG2	*	*	*clefG2	*	*	*
*	*	*	*	*	*	*ITrd8c12	*	*	*ITrd8c12	*	*	*
*k[b-e-a-]	*k[b-e-a-]	*k[b-e-a-]	*	*	*	*k[b-e-a-]	*	*	*k[b-e-a-]	*	*	*
*M3/4	*M3/4	*M3/4	*	*	*	*M3/4	*	*	*M3/4	*	*	*
!	!	!	!	!	!	!	!	!	!	!	!	!
[4C [4CC/	[4cc [4c/	4r	.	.	.	4r	.	.	4r	.	.	.
=1	=1	=1	=1	=1	=1	=1	=1	=1	=1	=1	=1	=1
2C] 2CC/]	2cc] 2c/]	2.r	.	.	.	2.r	.	.	2.r	.	.	.
[4C [4CC/	[4cc [4c/	.	.	.	.	.	.	.	.	.	.	.
=2	=2	=2	=2	=2	=2	=2	=2	=2	=2	=2	=2	=2
2C] 2CC/]	2cc] 2c/]	2.r	.	.	.	2.r	.	.	2.r	.	.	.
[4C [4CC/	[4cc [4c/	.	.	.	.	.	.	.	.	.	.	.
=3	=3	=3	=3	=3	=3	=3	=3	=3	=3	=3	=3	=3
2C] 2CC/]	2cc] 2c/]	4r	.	.	.	4r	.	.	4r	.	.	.
.	.	4r	.	.	.	4r	.	.	4r	.	.	.
*>B	*>B	*>B	*>B	*>B	*>B	*>B	*>B	*>B	*>B	*>B	*>B	*>B
!	!LO:TX:a:t=[segno]	!	!	!	!	!	!	!	!LO:TX:a:t=[segno]	!	!	!LO:DY:a:rj
.	.	.	.	.	.	.	.	.	.	.	.	.
4C 4CC/	4cc 4c/	8.C/	Di-	Dzień	.	8.c\	.	.	8.c\	.	.	f
.	.	16C/	-es	ów	.	16c\	.	.	16c\	.	.	.
=4	=4	=4	=4	=4	=4	=4	=4	=4	=4	=4	=4	=4
*	*	*^	*	*	*	*^	*	*	*^	*	*	*
*2\right	*2\right	*	*	*	*	*	*	*	*	*	*	*	*	*	*
2A- 2AA-\	2aa- 2a-\	4.A-\	2A-/	i-	gnie-	.	4.A-\	2A-/	.	.	4.a-\	2a-/	.	.	.
.	.	8A-\	.	-rae	.	.	8A-\	.	.	.	8a-\	.	.	.	.
!	!	!	!LO:N:vis=8	!	!	!	!	!LO:N:vis=8	!	!	!	!LO:N:vis=8	!	!	!
8.GL 8.GG/	8.ggL 8.g\	8.G\	8.G/	Di-	-wu	.	8.G\	8.G/	.	.	8.g\	8.g/	.	.	.
16F#XJk 16FF#X/	16ff#XJk 16f#X\	16F#X\	16F#/	-es	Bo	.	16F#X\	16F#/	.	.	16f#X\	16f#/	.	.	.
*	*	*v	*v	*	*	*	*	*	*	*	*v	*v	*	*	*
*	*	*	*	*	*	*v	*v	*	*	*	*	*	*
!!LO:LB:g=original
=5	=5	=5	=5	=5	=5	=5	=5	=5	=5	=5	=5	=5
8.F#XL 8.FF#X/	8.ff#XL 8.f#X\	(8.F#X\L	il-	że-	.	(8.F#X/L	.	.	(8.f#X\L	.	.	.
16GJk 16GG/	16ggJk 16g\	16G\Jk)	.	.	.	16G/Jk)	.	.	16g\Jk)	.	.	.
4G 4GG/	4gg 4g\	4G\	-la	-go	.	4G/	.	.	4g\	.	.	.
!	!	!	!	!	!	!	!	!	!	!	!	!LO:DY:a:rj
4r	4d 4Bn/	4r	.	.	.	8.Bn\	.	.	8.d\	Sol-	Zni-	p
.	.	.	.	.	.	16B\	.	.	16d\	-vet	-szczy	.
=6	=6	=6	=6	=6	=6	=6	=6	=6	=6	=6	=6	=6
*	*	*^	*	*	*	*^	*	*	*^	*	*	*
4r	2.e- 2.c/	4r	4ryy	.	.	.	4c\	2c/	.	.	4e-\	2e-/	sae-	byt	.
4G 4GG\	.	8.G\	4ryy	sol-	zni-	.	4c\	.	.	.	4e-\	.	-clum	.	.
.	.	16G\	.	-vet	-szczy	.	.	.	.	.	.	.	.	.	.
!	!	!	!	!	!	!	!	!LO:N:vis=8	!	!	!	!LO:N:vis=8	!	!	!
[4A- [>4AA-\	.	[4A-/	4A-\	sae-	byt	.	8.c\	8.c/	.	.	8.e-\	8.e-/	sol-	zni-	.
.	.	.	.	-clum	.	.	16c\	16c/	.	.	16e-\	16e-/	-vet	-szczy	.
=7	=7	=7	=7	=7	=7	=7	=7	=7	=7	=7	=7	=7	=7	=7	=7
2A-] 2AA-\]	2.en 2.c#X/	4A-/]	4A-\	-clum	.	.	4c#X\	2c#/	.	.	4en\	2e/	sae-	byt	.
!	!	!	!LO:N:vis=8	!	!	!LO:HP:t=cresc	!	!	!	!	!	!	!	!	!LO:HP:t=cresc
.	.	8.A-/	8.A-\	sol-	zni-	<	4c#\	.	.	.	4e\	.	-clum	.	<
.	.	16A-/	16A-\	-vet	-szczy	.	.	.	.	.	.	.	.	.	.
!	!	!	!	!	!	!	!	!LO:N:vis=8	!	!	!	!LO:N:vis=8	!	!	!
4An 4AAn\	.	[4An/	4An\	sae-	byt	.	8.c#\	8.c#/	.	.	8.e\	8.e/	sol-	zni-	.
.	.	.	.	.	.	.	16c#\	16c#/	.	.	16e\	16e/	-vet	-szczy	.
=8	=8	=8	=8	=8	=8	=8	=8	=8	=8	=8	=8	=8	=8	=8	=8
4An 4AAn\	2f 2d/	4AnX/]	4An\	-clum	.	.	4d\	2d/	.	.	4f\	2f/	sae-	byt	.
4AA\	.	8.AAn/	2ryy	sol-	zni-	.	4d\	.	.	.	4f\	.	-clum	.	.
.	.	16AA/	.	-vet	-szczy	.	.	.	.	.	.	.	.	.	.
!	!LO:S:s=2:note:problem:note-level slur	!	!	!	!	!	!	!	!	!	!	!LO:N:vis=8	!	!	!
[4BB-\	4d (>4F</	4BB-/	.	sae-	byt	.	8.F/	4raayy	.	.	8.d\	8.d/	sol-	zni-	.
.	.	.	.	.	.	.	16F/	.	.	.	16d\	16d/	-vet	-szczy	.
*	*	*v	*v	*	*	*	*	*	*	*	*v	*v	*	*	*
*	*	*	*	*	*	*v	*v	*	*	*	*	*	*
!!LO:PB:g=original
=9	=9	=9	=9	=9	=9	=9	=9	=9	=9	=9	=9	=9
!LO:TX:a:t=P:problem:brak zakończenia łuku	!LO:TX:a:t=P:problem:brak zakończenia łuku	!	!	!	!	!	!	!	!	!	!	!
4BB-\]	8e- 8G</)	4BB-/	.	.	.	8G-X/	.	.	8e-\	sae-	.	.
!	!	!	!	!	!	!	!	!	!	!	!	!LO:DY:a:rj
.	4g-X 4e-/	.	.	.	.	4e-\	.	.	4g-X\	-clum	świa-	f
4C-X\	.	4C-X/	-clum	świa-	.	.	.	.	.	.	.	.
.	4e- 4G</	.	.	.	.	4G-/	.	.	4e-\	in	-ta	.
8BB-\L	.	8BB-/	in	-ta	.	.	.	.	.	.	.	.
8AAn\J	8e- 8G</	8AAn/	fa-	ca-	.	8G-/	.	.	8e-\	fa-	ca-	.
=10	=10	=10	=10	=10	=10	=10	=10	=10	=10	=10	=10	=10
4.BB-\	4e- 4G-X</	4BB-/	-vil-	-łe-	.	4G-X/	.	.	4e-\	-vil-	-łe-	.
.	8d 8F</	8BB-/	-la	-go	.	8F/	.	.	8d\	-la	-go	.
8r	8r	8r	.	.	.	8r	.	.	8r	.	.	.
[>4BB-\	4d 4F</	8.BB-/	sol-	Zni-	.	8.F/	.	.	8.d\	sol-	Zni-	.
.	.	16BB-/	-vet	-szczy	.	16F/	.	.	16d\	-vet	-szczy	.
=11	=11	=11	=11	=11	=11	=11	=11	=11	=11	=11	=11	=11
4BB-\]	8e- 8G-X</	4BB-/	sae-	byt	.	8G-X/	.	.	8e-\	sae-	byt	.
.	4g-X 4e-/	.	.	.	.	4e-\	.	.	4g-X\	-clum	świa-	.
4C-X\	.	4C-X/	-clum	świa-	.	.	.	.	.	.	.	.
.	4e- 4G-</	.	.	.	.	4G-/	.	.	4e-\	in	-ta	.
8BB-\L	.	8BB-/	in	-ta	.	.	.	.	.	.	.	.
8AAn\J	8e- 8G-</	8AAn/	fa-	ca-	.	8G-/	.	.	8e-\	fa-	ca-	.
=12	=12	=12	=12	=12	=12	=12	=12	=12	=12	=12	=12	=12
4.BB-\	4e- 4G-X</	4BB-/	-vil-	-łe-	.	4G-X/	.	.	4e-\	-vil-	-łe-	.
.	8d 8F</	8BB-/	-la	-go.	.	8F/	.	.	8d\	-la	-go	.
8r	8r	8r	.	.	.	8r	.	.	8r	.	.	.
!	!	!LO:TX:a:i:t=dolce	!	!	!	!	!	!	!	!	!	!
8.B-\L	4r	8.B-\	Tes-	Świa-	.	4r	.	.	4r	.	.	.
16A-\Jk	.	16A-X\	-te	-dkiem	.	.	.	.	.	.	.	.
!!LO:LB:g=original
=13	=13	=13	=13	=13	=13	=13	=13	=13	=13	=13	=13	=13
[2G\	4r	4G\	Da-	Da-	.	4r	.	.	2.r	.	.	.
.	4r	8G\	-vid	-wid	.	4r	.	.	.	.	.	.
.	.	8r	.	.	.	.	.	.	.	.	.	.
!	!	!	!	!	!	!LO:TX:a:i:t=dolce	!	!	!	!	!	!
8.G\L]	8.e-/L	8.G\	Tes-	Świa-	.	8.e-\	Tes-	Świa-	.	.	.	.
16B-\Jk	16d/Jk	16B-\	-te	-dkiem	.	16d\	-te	-dkiem	.	.	.	.
=14	=14	=14	=14	=14	=14	=14	=14	=14	=14	=14	=14	=14
4.A-\	4.c/	4A-\	Da-	Da-	.	4c\	Da-	Da-	2.r	.	.	.
.	.	8A-\	-vid	-wid	.	8c\	-vid	-wid	.	.	.	.
8r	8r	8r	.	.	.	8r	.	.	.	.	.	.
8.A-\L	8.c/L	8.A-\	Tes-	świa-	.	8.c\	.	.	.	.	.	.
16G\Jk	16B-/Jk	16G\	-te	-dkiem	.	16B-\	.	.	.	.	.	.
=15	=15	=15	=15	=15	=15	=15	=15	=15	=15	=15	=15	=15
4.F\	4.A-</	4F\	Da-	Da-	.	4A-/	.	.	4r	.	.	.
.	.	8F\	-vid	-wid	.	8A-/	.	.	4r	.	.	.
8r	8r	8r	.	.	.	8r	.	.	.	.	.	.
8.FL 8.FF\	8.dL 8.A-</	8.F\	Tes-	Świa-	.	8.An/	.	.	8.d\	Test-	Świa-	.
16F#XJk 16FF#X\	16cJk 16An</	16F#X\	-te	-dkiem	.	16An/	.	.	16c\	-te	-dkiem	.
=16	=16	=16	=16	=16	=16	=16	=16	=16	=16	=16	=16	=16
4.G 4.GG\	4.Bn 4.G</	4G\	Da-	Da-	.	4G/	.	.	4Bn\	Da-	Da-	.
.	.	8G\	-vid	-wid	.	8G/	.	.	8B\	-vid	-wid	.
8r	8r	8r	.	.	.	8r	.	.	8r	.	.	.
!	!	!	!	!	!LO:DY:a:rj	!	!	!	!	!	!	!LO:DY:a:rj
8.G 8.GG\L	8.G</L	8.G\	Tes-	świa-	f	8.G/	.	.	8.G/	Tes-	Świa-	f
16FJk 16FF\	16BnJk 16G</	16Fn\	-te	-dkiem	.	16G/	.	.	16Bn/	-te	-dkiem	.
!!LO:PB:g=original
=17	=17	=17	=17	=17	=17	=17	=17	=17	=17	=17	=17	=17
*^	*	*	*	*	*	*	*	*	*	*	*	*
2.G/	4.E-\	4.c/	4.E-\	Da-	Da-	.	4.G/	.	.	4.c\	.	.	.
.	8BBn\	8d/	8BBn/	-vid	-wid	.	8G/	.	.	8d\	.	.	.
.	8.C\L	8.e-/L	8.C/	cum	z pro-	.	8.G/	.	.	8.e-\	.	.	.
.	16E-\Jk	16c/Jk	16E-\	si-	-ro-	.	16G/	.	.	16c\	.	.	.
*v	*v	*	*	*	*	*	*	*	*	*	*	*	*
=18	=18	=18	=18	=18	=18	=18	=18	=18	=18	=18	=18	=18
4G\	4e- 4c/	4G\	-bil-	-ki-	.	4c\	.	.	4e-\	.	.	.
8G 8GG\	8d 8Bn/	8GG/	-la	-nią	.	8Bn\	.	.	8d\	.	.	.
8r	8r	8r	.	.	.	8r	.	.	8r	.	.	.
!	!	!	!	!	!LO:DY:a	!	!	!	!	!	!	!LO:DY:a:rj
4GG\	4G</	8.GG/	Quan-	Ja-	p	8.G/	.	.	8.G/	Quan-	.	p
.	.	16GG/	-tus	-ki	.	16G/	.	.	16G/	-tus	.	.
=19	=19	=19	=19	=19	=19	=19	=19	=19	=19	=19	=19	=19
*	*	*^	*	*	*	*^	*	*	*^	*	*	*
2AA-\	2A-</	4AA-\	2AA-/	tre-	strach	.	4A-\	2A-/	.	.	4A-\	2A-/	tre-	.	.
.	.	4AA-\	.	-mor	.	.	4A-\	.	.	.	4A-\	.	-mor	.	.
!	!	!	!LO:N:vis=8	!	!	!	!	!LO:N:vis=8	!	!	!	!LO:N:vis=8	!	!	!
4AAn\	4An</	8.AAn\	8.AAn/	Quan-	ja-	.	8.An\	8.An/	.	.	8.An\	8.An/	.	.	.
.	.	16AA\	16AA/	-tus	-ki	.	16A\	16A/	.	.	16A\	16A/	.	.	.
=20	=20	=20	=20	=20	=20	=20	=20	=20	=20	=20	=20	=20	=20	=20	=20
2BB-\	2B-</	4BB-\	2BB-/	tre-	strach	.	4B-\	2B-/	.	.	4B-\	2B-/	.	.	.
.	.	4BB-\	.	-mor	.	.	4B-\	.	.	.	4B-\	.	.	.	.
!	!	!	!LO:N:vis=8	!	!	!	!	!LO:N:vis=8	!	!	!	!LO:N:vis=8	!	!	!
4BBn\	4Bn</	8.BBn\	8.BBn/	Quan-	ja-	.	8.Bn\	8.Bn/	.	.	8.Bn\	8.Bn/	.	.	.
.	.	16BB\	16BB/	-tus	-ki	.	16B\	16B/	.	.	16B\	16B/	.	.	.
*	*	*v	*v	*	*	*	*	*	*	*	*v	*v	*	*	*
*	*	*	*	*	*	*v	*v	*	*	*	*	*	*
!!LO:LB:g=original
=21	=21	=21	=21	=21	=21	=21	=21	=21	=21	=21	=21	=21
*^	*	*	*	*	*	*	*	*	*	*	*	*
4.C/	4.ryy	4.c/	4.C/	tre-	strach	.	4.c\	.	.	4.c\	.	.	.
4G/	8BBn\L	8d/L	8BBn/	-more	po-	.	8G/	.	.	8d\	.	.	<
.	8C\	8e-/	8C/	est	-wsta-	.	8G/	.	.	8e-\	.	.	.
!LO:N:vis=4	!	!	!	!	!	!	!	!	!	!	!	!	!
8A-/	8A- 8AA-\J	8f/J	8A-\	fu-	-nie	.	8c\	.	.	8f\	.	.	[
*v	*v	*	*	*	*	*	*	*	*	*	*	*	*
=22	=22	=22	=22	=22	=22	=22	=22	=22	=22	=22	=22	=22
4.G 4.GG\	4.g 4.Bn/	4G\	-tu-	wszę-	.	4Bn\	.	.	4g\	.	.	.
.	.	8G\	-rus	-dzie	.	8B\	.	.	8g\	.	.	.
8r	8r	8r	.	.	.	8r	.	.	8r	.	.	.
!	!	!	!	!	!LO:DY:a	!	!	!	!	!	!	!LO:DY:a:rj
4A- 4AA-\	4aa- 4a-\	8.A-\	Quan-	Kie-	f	8.A-/	.	.	8.a-\	.	.	f
.	.	16A-\	-do	-dy	.	16A-/	.	.	16a-\	.	.	.
=23	=23	=23	=23	=23	=23	=23	=23	=23	=23	=23	=23	=23
4.D 4.DD/	4.dd 4.d/	4D\	ju-	sę-	.	4D/	.	.	4d\	.	.	.
.	.	8D\	-dex	-dzia	.	8D/	.	.	8d\	.	.	.
8r	8r	8r	.	.	.	8r	.	.	8r	.	.	.
4F 4FF/	4ff 4f/	8.F\	est	wcho-	.	8.f\	.	.	8.f\	.	.	.
.	.	16F\	ven-	-dzić	.	16f\	.	.	16f\	.	.	.
=24	=24	=24	=24	=24	=24	=24	=24	=24	=24	=24	=24	=24
4.BBn 4.BBBn/	4.bn 4.Bn/	4BBn/	-tu-	bę-	.	4Bn\	.	.	4Bn\	.	.	.
.	.	8BB/	-rus	-dzie	.	8B\	.	.	8B\	.	.	.
8r	8r	8r	.	.	.	8r	.	.	8r	.	.	.
8.C 8.CC\L	8.cL 8.C</	8.C/	Cun-	w zło-	.	8.c\	.	.	8.c\	.	.	.
16FJk 16FF\	16dJk 16A-X</	16F\	-cta	-ści	.	16A-X/	.	.	16d\	.	.	.
!!LO:PB:g=original
=25	=25	=25	=25	=25	=25	=25	=25	=25	=25	=25	=25	=25
2.G 2.GG\	2e- 2c/	4.G\	stri-	któ-	.	4.c\	.	.	4.e-\	.	.	.
.	.	8G\	-cte	-re	.	8c\	.	.	8e-\	.	.	.
.	8e-L 8c/	8G\	dis-	lu-	.	8c\	.	.	8d\	.	.	.
.	8gJ 8Bn/	8G\	-cu-	-dzie	.	8Bn\	.	.	8g\	.	.	.
=26	=26	=26	=26	=26	=26	=26	=26	=26	=26	=26	=26	=26
4.A- 4.AA-\	4.e- 4.c/	4A-\	-su-	czy-	.	4c\	.	.	4e-\	.	.	.
.	.	8A-\	-rus	-nią	.	8c\	.	.	8e-\	.	.	.
8r	8r	8r	.	.	.	8r	.	.	8r	.	.	.
!	!	!	!	!	!	!	!	!	!	!	!	!LO:DY:a:rj
4F 4FF\	8.d-XL 8.A-</	8.F\	Cun-	w zło-	.	8.A-/	.	.	8.d-X\	.	.	p
!	!	!	!	!	!	!	!	!	!LO:TX:a:i:t=rallentando.	!	!	!
.	16A-</Jk	16F\	-cta	-ści	.	16A-/	.	.	16A-/	.	.	.
=27	=27	=27	=27	=27	=27	=27	=27	=27	=27	=27	=27	=27
*	*^	*	*	*	*	*	*	*	*	*	*	*
4GG\	4G</	2ryy	8G\	stri-	któ-	.	8G/	.	.	8G/	.	.	.
.	.	.	8G\	-cte	-re	.	8G/	.	.	8G/	.	.	.
4r	4r	.	4.GG/	dis-	lu-	.	4.G/	.	.	4.e-\	.	.	.
4GG\	4Bn</	8G<\L	.	.	.	.	.	.	.	.	.	.	.
.	.	8F<\J	8GG/	-cu-	-dzie	.	8F/	.	.	8d\	.	.	.
*	*v	*v	*	*	*	*	*	*	*	*	*	*	*
=28	=28	=28	=28	=28	=28	=28	=28	=28	=28	=28	=28	=28
8.GG\L	8.Bn<L 8.F</	8.GG/L	-su-	czy-	.	(8.F/L	.	.	8.Bn\L	.	.	.
16AA-\Jk	16c<Jk 16E-</	16AA-/Jk	.	.	.	16E-/Jk)	.	.	16c\Jk	.	.	.
4AA-\	4c< 4E-</	4AA-/	-rus	-nią	.	4E-/	.	.	4c\	.	.	.
!	!	!	!	!	!LO:DY:a:rj	!	!	!	!LO:TX:a:i:t=con pasione	!	!	!LO:DY:a:rj
4F 4FF\	8.d-XL 8.A-</	8.F\	Cun-	w zło-	f	8.A-\	.	.	8.d-X\	.	.	f
.	16a-Jk 16d-/	16F\	-cta	-ści	.	16d-X\	.	.	16a-\	.	.	.
!!LO:LB:g=original
=29	=29	=29	=29	=29	=29	=29	=29	=29	=29	=29	=29	=29
[2.G [2.GG\	8.gL 8.e-/	8.G\	stri-	któ-	.	8.e-\	.	.	8.g\	.	.	>
.	16fJk 16d/	16G\	-cte	-re	.	16d\	.	.	16f\	.	.	.
.	4e- 4c/	4G\	dis-	lu-	.	4c\	.	.	4e-\	.	.	.
.	[4d [4Bn/	4GG/	-cu-	-dzie	.	4Bn\	.	.	4d\	.	.	]
=30	=30	=30	=30	=30	=30	=30	=30	=30	=30	=30	=30	=30
4G] 4GG\]	4d] 4B/]	4GG/	-su-	czy-	.	4Bn\	.	.	4d\	.	.	.
8C/	8c/	8C/	-rus.	-nią.	.	8c\	.	.	8c\	.	.	.
[4.C [4.CC/	(8a-L 8f/	8r	.	.	.	8r	.	.	8r	.	.	.
.	8g 8e-/	4r	.	.	.	4r	.	.	4r	.	.	.
.	8f#XJ 8d/	.	.	.	.	.	.	.	.	.	.	.
=31	=31	=31	=31	=31	=31	=31	=31	=31	=31	=31	=31	=31
2.C_ 2.CC\_	4.g 4.e-/)	2.r	.	.	.	2.r	.	.	2.r	.	.	.
.	8fL 8A-</	.	.	.	.	.	.	.	.	.	.	.
.	8e- 8G</	.	.	.	.	.	.	.	.	.	.	.
.	8dJ 8F</	.	.	.	.	.	.	.	.	.	.	.
=32	=32	=32	=32	=32	=32	=32	=32	=32	=32	=32	=32	=32
8C] 8CC\]	8c 8G< 8E-</	2.r	.	.	.	2.r	.	.	2.r	.	.	.
8r	8r	.	.	.	.	.	.	.	.	.	.	.
8C 8CC\	8c 8G< 8E-</	.	.	.	.	.	.	.	.	.	.	.
8r	8r	.	.	.	.	.	.	.	.	.	.	.
8C 8CC\	8c 8G< 8E-</	.	.	.	.	.	.	.	.	.	.	.
8r	8r	.	.	.	.	.	.	.	.	.	.	.
=33	=33	=33	=33	=33	=33	=33	=33	=33	=33	=33	=33	=33
2.C 2.CC\	2.c 2.G< 2.E-<;/	2.r;	.	.	.	2.r;	.	.	2.r;	.	.	.
!!LO:PB:g=original
==34	==34	==34	==34	==34	==34	==34	==34	==34	==34	==34	==34	==34
!!!OMD: Andante.
*k[]	*k[]	*k[]	*	*	*	*k[]	*	*	*k[]	*	*	*
*M3/4	*M3/4	*M3/4	*	*	*	*M3/4	*	*	*M3/4	*	*	*
!LO:TX:a:t=P:problem:brak kasowników przy kluczu	!LO:TX:a:t=P:problem:brak kasowników przy kluczu	!LO:TX:a:t=P:problem:brak kasowników przy kluczu	!	!	!	!LO:TX:a:t=P:problem:brak kasowników przy kluczu	!	!	!LO:TX:a:t=P:problem:brak kasowników przy kluczu	!	!	!
4G\	4g/	4ryy	.	.	.	4ryy	.	.	4ryy	.	.	.
=35	=35	=35	=35	=35	=35	=35	=35	=35	=35	=35	=35	=35
4c\	4cc\	2.r	.	.	.	2.r	.	.	2.r	.	.	.
4G\	4g/	.	.	.	.	.	.	.	.	.	.	.
*Xtuplet	*	*	*	*	*	*	*	*	*	*	*	*
!	!LO:TUP:b	!	!	!	!	!	!	!	!	!	!	!
12E\L	12e/L	.	.	.	.	.	.	.	.	.	.	.
12G\	12g/	.	.	.	.	.	.	.	.	.	.	.
12c\J	12cc/J	.	.	.	.	.	.	.	.	.	.	.
=36	=36	=36	=36	=36	=36	=36	=36	=36	=36	=36	=36	=36
4e\	4ee\	4r	.	.	.	4r	.	.	4r	.	.	.
!	!	!	!	!	!	!	!	!	!LO:TX:a:i:t=Solo	!	!	!
4c\	4cc\	4r	.	.	.	4r	.	.	4r	.	.	.
4GG\	4G</	8.GG/	.	.	.	8.G/	.	.	8.G/	Tu-	Trą-	.
.	.	16GG/	.	.	.	16G/	.	.	16G/	-ba	-ba	.
=37	=37	=37	=37	=37	=37	=37	=37	=37	=37	=37	=37	=37
[2.C [2.CC\	4.e 4.G</	4.C/	.	.	.	4.G/	.	.	4.e\	mi-	gro-	.
.	8f 8A</	8C/	.	.	.	8A/	.	.	8f\	-rum	-źna	.
.	8.dL 8.F</	8.C/	.	.	.	8.F/	.	.	8.d\	spar-	Ar-	.
.	16eJk 16G</	16C/	.	.	.	16G/	.	.	16e\	-gens	-cha-	.
=38	=38	=38	=38	=38	=38	=38	=38	=38	=38	=38	=38	=38
2C] 2CC\]	4c 4G< 4E</	4C/	.	.	.	4E/	.	.	4c\	so-	-nio-	.
.	4G< 4E</	4C/	.	.	.	4E/	.	.	4G/	-num	-ła	.
4G\	4g/	4r	.	.	.	4r	.	.	4r	.	.	.
!!LO:LB:g=original
=39	=39	=39	=39	=39	=39	=39	=39	=39	=39	=39	=39	=39
4e 4c\	4ee 4cc\	2.r	.	.	.	2.r	.	.	2.r	.	.	.
4c 4G\	4cc 4g\	.	.	.	.	.	.	.	.	.	.	.
*	*Xtuplet	*	*	*	*	*	*	*	*	*	*	*
12GL 12E\	12gL 12e/	.	.	.	.	.	.	.	.	.	.	.
12c 12G\	12cc 12g/	.	.	.	.	.	.	.	.	.	.	.
12eJ 12c\	12eeJ 12cc/	.	.	.	.	.	.	.	.	.	.	.
=40	=40	=40	=40	=40	=40	=40	=40	=40	=40	=40	=40	=40
4g> 4e>\	4gg 4ee\	4r	.	.	.	4r	.	.	4r	.	.	.
4e> 4c>\	4ee 4cc\	4r	.	.	.	4r	.	.	4r	.	.	.
4GG\	4G</	8.G\	.	.	.	8.G/	.	.	8.G/	Tu-	Trą-	.
.	.	16G\	.	.	.	16G/	.	.	16G/	-ba	-ba	.
=41	=41	=41	=41	=41	=41	=41	=41	=41	=41	=41	=41	=41
4.C 4.CC/	4.g 4.e/	4.C/	.	.	.	4.e\	.	.	4.g\	mi-	gro-	.
8A 8AA\	8e 8c/	8A\	.	.	.	8c\	.	.	8e\	-rum	-źna	.
8.DL 8.DD/	8.fL 8.A/	8.D/	.	.	.	8.A\	.	.	8.f\	spar-	Ar-	.
16GG/Jk	16gJk 16B/	16GG/	.	.	.	16B\	.	.	16g\	-gens	-cha-	.
=42	=42	=42	=42	=42	=42	=42	=42	=42	=42	=42	=42	=42
4.C 4.CC/	4.e 4.c/	4C/	.	.	.	4c\	.	.	4e\	so-	-nio-	.
.	.	8C/	.	.	.	8c\	.	.	8e\	-num	-ła	.
8r	8r	8r	.	.	.	8r	.	.	8r	.	.	.
4E 4EE\	4c 4G</	8E\	.	.	.	8G/	.	.	8c\	Per	Gro-	.
.	.	8E\	.	.	.	8G/	.	.	8c\	se-	-by	.
=43	=43	=43	=43	=43	=43	=43	=43	=43	=43	=43	=43	=43
*	*^	*	*	*	*	*	*	*	*	*	*	*
4.F 4.FF\	4.B 4.A-X</	4.ryy	4.F\	.	.	.	4.A-X/	.	.	4.B^\	-pul-	świa-	.
8EL 8EE\	8c/L	4.G</	8E\	.	.	.	8G/	.	.	8c\	-chra	-ta	.
8BB 8BBB\	8d/	.	8BB/	.	.	.	8G/	.	.	8d\	re-	wzru-	.
8CJ 8CC\	8e/J	.	8C/	.	.	.	8G/	.	.	8e\	-gi-	-szyć	.
*	*v	*v	*	*	*	*	*	*	*	*	*	*	*
!!LO:PB:g=original
=44	=44	=44	=44	=44	=44	=44	=44	=44	=44	=44	=44	=44
4.G 4.GG\	4e 4c/	4G\	.	.	.	4c\	.	.	4e\	-o-	zdo-	.
.	8d 8B/	4G\	.	.	.	4B\	.	.	4d\	-num	-ła	.
8r	8r	.	.	.	.	.	.	.	.	.	.	.
4c 4G 4E\	4cc 4g/	4r	.	.	.	4r	.	.	4r	.	.	.
=45	=45	=45	=45	=45	=45	=45	=45	=45	=45	=45	=45	=45
*	*^	*	*	*	*	*	*	*	*	*	*	*
4.d 4.B 4.A-X 4.F\	4.b/	4.a-X 4.f\	2.r	.	.	.	2.r	.	.	2.r	.	.	.
8cL 8G 8E\	8cc/L	4g\	.	.	.	.	.	.	.	.	.	.	.
8B 8BB\	8dd/	.	.	.	.	.	.	.	.	.	.	.	.
8cJ 8C\	8ee/J	8g\	.	.	.	.	.	.	.	.	.	.	.
=46	=46	=46	=46	=46	=46	=46	=46	=46	=46	=46	=46	=46	=46
*^	*	*	*	*	*	*	*	*	*	*	*	*	*
4.G 4.GG/	2rEEyy	4ee 4cc/	4.g\	4r	.	.	.	4r	.	.	4r	.	.	.
.	.	8dd 8b/	.	4r	.	.	.	4r	.	.	4r	.	.	.
8r	.	8r	8r	.	.	.	.	.	.	.	.	.	.	.
8B/L	8G\L	4d/	4ryy	8G\	Co-	Przed	.	8B/	.	.	8d\	.	.	.
8A/J	8F#X\J	.	.	8F#X\	-get	tron	.	8A/	.	.	8d\	.	.	.
*	*	*v	*v	*	*	*	*	*	*	*	*	*	*	*
=47	=47	=47	=47	=47	=47	=47	=47	=47	=47	=47	=47	=47	=47
[2G/	4.E\	4.d/	4.E\	om-	Pań-	.	4.G/	.	.	4.d\	.	.	.
.	8E-X\L	8c/L	8E-X\	-nes	-ski	.	8G/	.	.	8c\	.	.	.
8G/L]	8D\	8B/	8D\	an-	nas	.	8G/	.	.	8B\	.	.	.
8F#X/J	8C\J	8A/J	8C/	-te	po-	.	8F#X/	.	.	8A\	.	.	.
*v	*v	*	*	*	*	*	*	*	*	*	*	*	*
=48	=48	=48	=48	=48	=48	=48	=48	=48	=48	=48	=48	=48
4.BB\	4.d 4.G</	4BB/	Thro-	-wo-	.	4G/	.	.	4d\	.	.	.
.	.	8BB/	-num	-ła	.	8G/	.	.	8d\	.	.	.
8r	8r	8r	.	.	.	8r	.	.	8r	.	.	.
4BB\	4d#X 4A</	4BB/	Co-	Przed	.	4A/	.	.	4d#X^\	.	.	.
!!LO:LB:g=original
=49	=49	=49	=49	=49	=49	=49	=49	=49	=49	=49	=49	=49
*^	*	*	*	*	*	*	*	*	*	*	*	*
8C\	4ryy	8e 8G</	8C/	-get	tron	.	8G/	.	.	8e\	.	.	.
8r	.	8r	8r	.	.	.	8r	.	.	8r	.	.	.
2G/	4C\	4A</	4C/	om-	Pań-	.	4G/	.	.	4A/	.	.	.
.	4C#X\	4A#X</	4C#X/	-nes	-ski	.	4G/	.	.	4A#X/	.	.	.
=50	=50	=50	=50	=50	=50	=50	=50	=50	=50	=50	=50	=50	=50
2G/	2.D\	4B</	8D\	an-	nas	.	8G/	.	.	8B\	.	.	.
.	.	.	8D\	-te	po-	.	8G/	.	.	8B\	.	.	.
*	*	*	*2\right	*	*	*	*	*	*	*	*	*	*
.	.	4A</	2D\	tro-	-wo-	.	(4G/	.	.	(4A/	.	.	.
4ryy	.	4d< 4F#X</	.	.	.	.	4F#X/)	.	.	4d\)	.	.	.
*v	*v	*	*	*	*	*	*	*	*	*	*	*	*
=51	=51	=51	=51	=51	=51	=51	=51	=51	=51	=51	=51	=51
2E;<\	2B< 2G<;/	2E;\	-num	-ła,	.	2G;/	.	.	2B;\	.	.	.
4BB\	4d#X 4A</	4BB/	Co-	Przed	.	4A/	.	.	4d#X^\	.	.	.
=52	=52	=52	=52	=52	=52	=52	=52	=52	=52	=52	=52	=52
*^	*	*	*	*	*	*	*	*	*	*	*	*
8C\	4ryy	8e 8G</	8C/	-get	tron	.	8G/	.	.	8e\	.	.	.
8r	.	8r	8r	.	.	.	8r	.	.	8r	.	.	.
2G/	4C\	4A</	4C/	om-	Pań-	.	4G/	.	.	4A/	.	.	.
.	4C#X\	4A#X</	4C#X/	-nes	-ski	.	4G/	.	.	4A#X/	.	.	.
=53	=53	=53	=53	=53	=53	=53	=53	=53	=53	=53	=53	=53	=53
2G/	2D\	4B</	8D\	an-	nas	.	8G/	.	.	8B/	.	.	.
.	.	.	8D\	-te	po-	.	8G/	.	.	8B/	.	.	.
.	.	4A</	2D\	tro-	-wo-	.	(4G/	.	.	(4A/	.	.	.
4ryy	4D 4DD\	4d< 4F#X</	.	.	.	.	4F#X/)	.	.	4d\)	.	.	.
*v	*v	*	*	*	*	*	*	*	*	*	*	*	*
!!LO:PB:g=original
=54	=54	=54	=54	=54	=54	=54	=54	=54	=54	=54	=54	=54
*	*	*^	*	*	*	*^	*	*	*^	*	*	*
!	!	!	!	!	!	!	!	!	!	!	!LO:TX:a:i:t=tutti	!	!	!	!
8GG\	8G</L	4G\	4ryy	-num	-ła	.	4G/	4ryy	.	.	4G/	4ryy	.	.	.
8r	16g/L	.	.	.	.	.	.	.	.	.	.	.	.	.	.
.	16g/JJ	.	.	.	.	.	.	.	.	.	.	.	.	.	.
4r	8g/L	4r	4ryy	.	.	.	4r	4ryy	.	.	4r	4ryy	.	.	.
.	16g/L	.	.	.	.	.	.	.	.	.	.	.	.	.	.
.	16g/JJ	.	.	.	.	.	.	.	.	.	.	.	.	.	.
!	!	!	!LO:TX:a:t=P:problem:dwie oddzielne nuty	!	!	!LO:DY:a	!	!LO:TX:a:t=P:problem:dwie oddzielne nuty	!	!	!	!LO:TX:a:t=P:problem:dwie oddzielne nuty	!	!	!LO:DY:a:rj
4G 4GG\	8g/L	8.GG/	4GG\	mors	śmierć	f	8.G/	4G\	.	.	8.G/	4G\	.	.	f
.	16g/L	.	.	.	.	.	.	.	.	.	.	.	.	.	.
.	16g/JJ	16GG/	.	stu-	.	.	16G/	.	.	.	16G/	.	.	.	.
*	*	*	*	*	*	*	*	*	*	*	*v	*v	*	*	*
=55	=55	=55	=55	=55	=55	=55	=55	=55	=55	=55	=55	=55	=55	=55
!	!	!	!	!	!	!	!	!	!	!	!LO:N:vis=4.	!	!	!
4C 4CC\	4e-X 4G</	4C/	4.ryy	-pe-	zadr-	.	4G/	4.ryy	.	.	4e-X\	.	.	.
8E-X 8EE-X\	8c/	8E-X\	.	-bit	-zy	.	8G/	.	.	.	8c\	.	.	.
8E-L 8EE-\	8cL 8G</	8E-\L	8E-/	et	i	.	8G\L	8G/	.	.	(16c\LL	.	.	.
.	.	.	.	.	.	.	.	.	.	.	32d\L	.	.	.
.	.	.	.	.	.	.	.	.	.	.	32c\JJJ)	.	.	.
8F 8FF\	8B 8A-X</	8F\J	8F/	.	przy-	.	8A-X\	8A-/	.	.	8Bn\	.	.	.
8E-J 8EE-\	8cJ 8G</	8E-\	8E-/	na-	-ro	.	8G\J	8G/	.	.	8c\	.	.	.
=56	=56	=56	=56	=56	=56	=56	=56	=56	=56	=56	=56	=56	=56	=56
*	*	*	*	*	*	*	*	*	*	*	*^	*	*	*
4.BB\	4.d 4.G</	4BB/	2ryy	-tu-	dze-	.	4G/	2ryy	.	.	4d\	2ryy	.	.	.
.	.	8BB/	.	-ra	-nie	.	8G/	.	.	.	8d\	.	.	.	.
8r	8r	8r	.	.	.	.	8r	.	.	.	8r	.	.	.	.
!	!	!	!LO:TX:a:t=P:problem:dwie oddzielne nuty	!	!	!	!	!LO:TX:a:t=P:problem:dwie oddzielne nuty	!	!	!	!LO:TX:a:t=P:problem:dwie oddzielne nuty	!	!	!
4BB\	4d 4G</	8.BB\	4BB/	Cum	Że	.	8.G/	4G\	.	.	8.d\	4d/	.	.	.
.	.	16BB\	.	re-	.	.	16G/	.	.	.	16d\	.	.	.	.
=57	=57	=57	=57	=57	=57	=57	=57	=57	=57	=57	=57	=57	=57	=57	=57
*	*^	*	*	*	*	*	*	*	*	*	*	*	*	*	*
8.C/L	8.e-X/L	2c\	8.C/	2ryy	-sur-	wszel-	.	8.c\	2ryy	.	.	8.e-X\	2ryy	.	.	<
16BB-X/Jk	16en/Jk	.	16B-X\	.	-get	-kie	.	16c\	.	.	.	16e\	.	.	.	.
8.AA/L	8.f/L	.	8.A\L	.	cre-	wsta	.	4c\	.	.	.	8.f\L	.	.	.	.
16AA-X/Jk	16f#X/Jk	.	16A-X\Jk	.	.	.	.	.	.	.	.	16f#X\Jk	.	.	.	.
!	!	!	!	!LO:N:vis=8	!	!	!	!	!LO:N:vis=8	!	!	!	!LO:N:vis=8	!	!	!
8.GG/L	8.g/L	8.B\L	8.G\L	8.G/	-a-	nie	.	8.B\L	8.B/	.	.	8.g\L	8.g/	.	.	.
16FF/Jk	16a-X/Jk	16c\Jk	16F\Jk	16F/	.	stwo	.	16c\Jk	16c/	.	.	16a-X\Jk	16a-/	.	.	[[
*	*v	*v	*	*	*	*	*	*v	*v	*	*	*v	*v	*	*	*
*	*	*v	*v	*	*	*	*	*	*	*	*	*	*
!!LO:LB:g=original
=58	=58	=58	=58	=58	=58	=58	=58	=58	=58	=58	=58	=58
!	!	!	!	!	!LO:DY:a:rj	!	!	!	!	!	!	!LO:DY:a:rj
4FF/	4a-X 4c/	4F\	-tu-	rze-	ff	4c\	.	.	4a-X\	.	.	ff
8GG/	8g 8B/	8G\	-ra	-nie	.	8B\	.	.	8g\	.	.	.
8r	8r	8r	.	.	.	8r	.	.	8r	.	.	.
!	!	!	!	!	!LO:DY:a:rj	!	!	!	!	!	!	!LO:DY:a:rj
8GG/L	8gL 8B/	8G\	Iu-	Na	p	8B\	.	.	8g\	.	.	p
8BB/J	8fJ 8d/	8BB/	-di	wy-	.	8d\	.	.	8f\	.	.	.
=59	=59	=59	=59	=59	=59	=59	=59	=59	=59	=59	=59	=59
4.C/	(2d 2B/	4.C/	can-	-ro-	.	4.c\	.	.	4.e\	.	.	.
8A 8AA\	.	8A\	-ti	-ków	.	8c\	.	.	8e\	.	.	.
8FL 8FF\	8dL 8c/)	8F\	res-	u-	.	8c\	.	.	8d\	.	.	.
8GJ 8GG\	8gJ 8B/	8G\	-pon-	-sły-	.	8B\	.	.	8g\	.	.	.
=60	=60	=60	=60	=60	=60	=60	=60	=60	=60	=60	=60	=60
4.A 4.AA\	4.e 4.c/	4A\	-su-	-sze-	.	4c\	.	.	4e\	.	.	.
.	.	8A\	-ra,	-nie	.	8c\	.	.	8e\	.	.	.
8r	8r	8r	.	.	.	8r	.	.	8r	.	.	.
!	!	!	!	!	!LO:DY:a	!	!	!	!	!	!	!LO:DY:a:rj
8FL 8FF\	8dL 8c 8A</	8F\	Iu-	Na	f	8c\	.	.	8d\	.	.	f
8F#XJ 8FF#X\	8d#XJ 8c 8A</	8F#X\	-di	wy-	.	8c\	.	.	8d#X\	.	.	.
=61	=61	=61	=61	=61	=61	=61	=61	=61	=61	=61	=61	=61
2.G 2.GG\	(2e 2c/	4.G\	can-	-ro-	.	4.c\	.	.	4.e\	.	.	.
.	.	8G\	-ti	-ków	.	8c\	.	.	8e\	.	.	.
.	8dL 8B/)	8G\	res-	u-	.	8c\	.	.	8d\	.	.	.
.	8gJ 8B/	8GG/	-pon-	-sły-	.	8B\	.	.	8g\	.	.	.
=62	=62	=62	=62	=62	=62	=62	=62	=62	=62	=62	=62	=62
4.C/	4.c/	4C/	-su-	-sze-	.	4c\	.	.	4c\	.	.	.
.	.	8C/	-ra	-nie	.	8c\	.	.	8c\	.	.	.
8r	8r	8r	.	.	.	8r	.	.	8r	.	.	.
4C/	4c/	4r	.	.	.	4r	.	.	4r	.	.	.
!!LO:PB:g=original
=63	=63	=63	=63	=63	=63	=63	=63	=63	=63	=63	=63	=63
2BB-X\	2d-X/	2.r	.	.	.	2.r	.	.	2.r	.	.	.
4AA-X\	4c 4A-X< 4E-X</	.	.	.	.	.	.	.	.	.	.	.
=64||	=64||	=64||	=64||	=64||	=64||	=64||	=64||	=64||	=64||	=64||	=64||	=64||
!!!OMD: Andantino
*k[b-e-a-]	*k[b-e-a-]	*k[b-e-a-]	*	*	*	*k[b-e-a-]	*	*	*k[b-e-a-]	*	*	*
*M4/4	*M4/4	*M4/4	*	*	*	*M4/4	*	*	*M4/4	*	*	*
*met(c)	*met(c)	*met(c)	*	*	*	*met(c)	*	*	*met(c)	*	*	*
2E- 2EE-\	2B-< 2G</	1ryy	.	.	.	1ryy	.	.	2r	.	.	.
!	!	!	!	!	!	!	!	!	!LO:TX:a:i:t=Solo.	!	!	!
2r	2r	.	.	.	.	.	.	.	4e-\	Li-	Z Księ-	.
.	.	.	.	.	.	.	.	.	4e-\	-ber	-gi	.
=65	=65	=65	=65	=65	=65	=65	=65	=65	=65	=65	=65	=65
*^	*	*	*	*	*	*	*	*	*	*	*	*
1E-	2AA-\	2c< 2A-</	1ryy	.	.	.	1ryy	.	.	4.e-\	scri-	bę-	.
.	.	.	.	.	.	.	.	.	.	8c\	-ptus	-dzie	.
.	2GG\	2d-X< 2B-</	.	.	.	.	.	.	.	4.B-\	pro-	o-	.
.	.	.	.	.	.	.	.	.	.	8d-X\	-fe-	-bia-	.
*v	*v	*	*	*	*	*	*	*	*	*	*	*	*
=66	=66	=66	=66	=66	=66	=66	=66	=66	=66	=66	=66	=66
4.AA-\	4.c< 4.A-< 4.E-</	1ryy	.	.	.	1ryy	.	.	4c\	-re-	-wio-	.
.	.	.	.	.	.	.	.	.	8A-/	-tur	-ny	.
8r	8r<	.	.	.	.	.	.	.	8r	.	.	.
2r	2r	.	.	.	.	.	.	.	4A-/	In	Sze-	.
.	.	.	.	.	.	.	.	.	4B-/	quo	-reg	.
!!LO:LB:g=original
=67	=67	=67	=67	=67	=67	=67	=67	=67	=67	=67	=67	=67
*^	*	*	*	*	*	*	*	*	*	*	*	*
1E-	2AA-\	2c< 2A-</	1ryy	.	.	.	1ryy	.	.	(8.c\L	to-	czy-	.
.	.	.	.	.	.	.	.	.	.	16e-\Jk)	.	.	.
.	.	.	.	.	.	.	.	.	.	4e-\	-tum	-nów	.
.	2GG\	2d-X< 2B-</	.	.	.	.	.	.	.	(8f^<\L	con-	do-	.
.	.	.	.	.	.	.	.	.	.	16e-\Jk)	.	.	.
.	.	.	.	.	.	.	.	.	.	16r	.	.	.
.	.	.	.	.	.	.	.	.	.	(8d-X^<\L	-ti-	-peł-	.
.	.	.	.	.	.	.	.	.	.	16B-\Jk)	.	.	.
.	.	.	.	.	.	.	.	.	.	16r	.	.	.
*v	*v	*	*	*	*	*	*	*	*	*	*	*	*
=68	=68	=68	=68	=68	=68	=68	=68	=68	=68	=68	=68	=68
*	*	*	*	*	*	*	*	*	*^	*	*	*
4.AA-\	4.c< 4.A-< 4.E-</	1ryy	.	.	.	1ryy	.	.	4c\	2ryy	-ne-	-nio-	.
.	.	.	.	.	.	.	.	.	8A-/	.	-tur	-ny	.
8r	8r	.	.	.	.	.	.	.	8r	.	.	.	.
2r	2r	.	.	.	.	.	.	.	4c\	2c/	Un-	I	.
.	.	.	.	.	.	.	.	.	4c\	.	-de	.	.
*	*	*	*	*	*	*	*	*	*v	*v	*	*	*
=69	=69	=69	=69	=69	=69	=69	=69	=69	=69	=69	=69	=69
1BB-	1dn< 1A-<	1ryy	.	.	.	1ryy	.	.	4dn\	mun-	z te-	.
.	.	.	.	.	.	.	.	.	4c\	-dus	-go	.
.	.	.	.	.	.	.	.	.	(8.B-\L	Iu-	świat	.
.	.	.	.	.	.	.	.	.	32c\LL	.	.	.
.	.	.	.	.	.	.	.	.	32B-\JJJ)	.	.	.
.	.	.	.	.	.	.	.	.	8A-/	.	o-	.
.	.	.	.	.	.	.	.	.	8F/	-di-	-są-	.
!!LO:LB:g=original
=70	=70	=70	=70	=70	=70	=70	=70	=70	=70	=70	=70	=70
*^	*	*	*	*	*	*	*	*	*	*	*	*
4.E- 4.EE-\	4G/	4.e- 4.G/	1ryy	.	.	.	2ryy	.	.	4G/	-ce-	-dzo-	.
.	4ryy	.	.	.	.	.	.	.	.	8E-/	-tur	-ny	.
8r	.	8r	.	.	.	.	.	.	.	8r	.	.	.
!	!	!	!	!	!	!	!LO:TX:a:i:t=2.° Tenore \nSolo	!	!	!	!	!	!
2E- 2EE-\	2G/	4B-</	.	.	.	.	4B-\	Iu-	A	2ryy	.	.	.
.	.	4e-/	.	.	.	.	4e-\	-dex	gdy	.	.	.	.
=71	=71	=71	=71	=71	=71	=71	=71	=71	=71	=71	=71	=71	=71
4.F 4.FF\	4A-/	4e-/	1ryy	.	.	.	4e-\	er-	Sę-	1ryy	.	.	.
.	4ryy	8d/	.	.	.	.	8d\	-go	-dzia	.	.	.	.
8r	.	8r	.	.	.	.	8r	.	.	.	.	.	.
2D 2DD\	2F/	4c/	.	.	.	.	(8.c\L	cum	iuż	.	.	.	.
.	.	.	.	.	.	.	32d\LL	.	.	.	.	.	.
.	.	.	.	.	.	.	32c\JJJ	.	.	.	.	.	.
.	.	8B-</L	.	.	.	.	8B-\)	.	.	.	.	.	.
.	.	8A-</J	.	.	.	.	8A-/	se-	za-	.	.	.	.
=72	=72	=72	=72	=72	=72	=72	=72	=72	=72	=72	=72	=72	=72
4.E- 4.EE-\	2ryy	4G</	1ryy	.	.	.	8.G/L	-de-	-się-	1ryy	.	.	.
.	.	.	.	.	.	.	16B-/Jk	.	.	.	.	.	.
.	.	8B-< 8G</	.	.	.	.	8B-/	-bit	-dzie:	.	.	.	.
8r	.	8r	.	.	.	.	8r	.	.	.	.	.	.
2E- 2EE-\	2G/	4B-</	.	.	.	.	4B-\	Quid	Wszy-	.	.	.	.
.	.	4e-/	.	.	.	.	4e-\	quid	-stko	.	.	.	.
=73	=73	=73	=73	=73	=73	=73	=73	=73	=73	=73	=73	=73	=73
4.F 4.FF\	4.A-/	4e-/	1ryy	.	.	.	4e-\	la-	na	1ryy	.	.	.
.	.	8d/	.	.	.	.	8d\	-tet	jaw	.	.	.	.
8r	8r	8r	.	.	.	.	8r	.	.	.	.	.	.
2D 2DD\	2F/	4c/	.	.	.	.	(8.c\L	ap-	wy-	.	.	.	.
.	.	.	.	.	.	.	32d\LL	.	.	.	.	.	.
.	.	.	.	.	.	.	32c\JJJ	.	.	.	.	.	.
.	.	8B-</L	.	.	.	.	8B-/)	.	.	.	.	.	.
.	.	8A-</J	.	.	.	.	8A-/	-pa-	-do-	.	.	.	.
*v	*v	*	*	*	*	*	*	*	*	*	*	*	*
!!LO:LB:g=original
=74	=74	=74	=74	=74	=74	=74	=74	=74	=74	=74	=74	=74
4.C 4.CC\	4.e- 4.c 4.G</	2ryy	.	.	.	4c\	-ne-	-bę-	1ryy	.	.	.
.	.	.	.	.	.	8C/	-bit	-dzie	.	.	.	.
8r	8r	.	.	.	.	8r	.	.	.	.	.	.
!	!	!LO:TX:a:i:t=Baſso Solo	!	!	!	!	!	!	!	!	!	!
2r	2r	4G\	Quid	Cóż	.	2ryy	.	.	.	.	.	.
.	.	4G\	sum	ja	.	.	.	.	.	.	.	.
=75	=75	=75	=75	=75	=75	=75	=75	=75	=75	=75	=75	=75
2C\	2e- 2c 2G</	4G\	mi-	nę-	.	1ryy	.	.	1ryy	.	.	.
.	.	4E-\	-ser	-dzny	.	.	.	.	.	.	.	.
2GG\	2f 2B- 2G</	4.D\	tunc	po-	.	.	.	.	.	.	.	.
.	.	8F\	di-	-wiem	.	.	.	.	.	.	.	.
=76	=76	=76	=76	=76	=76	=76	=76	=76	=76	=76	=76	=76
4.C\	4.e- 4.c 4.G</	4E-\	-ctu-	Pa-	.	1ryy	.	.	1ryy	.	.	.
.	.	8C/	-rus	-nie.	.	.	.	.	.	.	.	.
8r	8r	8r	.	.	.	.	.	.	.	.	.	.
2r	2r	4G\	Quem	Kto	.	.	.	.	.	.	.	.
.	.	4G\	pa-	o-	.	.	.	.	.	.	.	.
=77	=77	=77	=77	=77	=77	=77	=77	=77	=77	=77	=77	=77
2C\	2e- 2c 2G</	(8G\	-tro-	-broń-	.	1ryy	.	.	1ryy	.	.	.
.	.	4c\)	.	.	.	.	.	.	.	.	.	.
.	.	8E-\	-nem	-cą	.	.	.	.	.	.	.	.
2GG\	2f 2Bn 2G</	8A-\L	ro-	się	.	.	.	.	.	.	.	.
.	.	16G\Jk	.	.	.	.	.	.	.	.	.	.
.	.	16r	.	.	.	.	.	.	.	.	.	.
.	.	8F\L	-ga-	mym	.	.	.	.	.	.	.	.
.	.	16D\Jk	.	.	.	.	.	.	.	.	.	.
.	.	16r	.	.	.	.	.	.	.	.	.	.
=78	=78	=78	=78	=78	=78	=78	=78	=78	=78	=78	=78	=78
4.C\	4.e- 4.c 4.G</	4E-\	-tu-	sta-	.	1ryy	.	.	1ryy	.	.	.
.	.	8C/	-rus?	-nie?	.	.	.	.	.	.	.	.
8r	8r	8r	.	.	.	.	.	.	.	.	.	.
2r	2r	4G\	Cum	Gdy	.	.	.	.	.	.	.	.
.	.	4An\	vis	ka-	.	.	.	.	.	.	.	.
=79	=79	=79	=79	=79	=79	=79	=79	=79	=79	=79	=79	=79
1D 1DD	2d 2B-< 2G</	4B-\	jus-	-żdy	.	1ryy	.	.	1ryy	.	.	.
.	.	(8.An\L	-tus	u-	.	.	.	.	.	.	.	.
.	.	16G\Jk)	.	.	.	.	.	.	.	.	.	.
.	2d 2An< 2F#X</	4d\	sit	-zna	.	.	.	.	.	.	.	.
!	!LO:TX:b:t=V&colon;	!	!	!	!	!	!	!	!	!	!	!
.	.	4F#X\	se	Ka	.	.	.	.	.	.	.	.
!!LO:PB:g=original
=80	=80	=80	=80	=80	=80	=80	=80	=80	=80	=80	=80	=80
*	*^	*	*	*	*	*	*	*	*	*	*	*
!	!	!	!LO:TX:a:i:t=Baſso	!	!	!	!LO:TX:a:i:t=II°.Tenore	!	!	!LO:TX:a:i:t=I° Tenore	!	!	!
4.D 4.GG\	4.d 4.B-< 4.G</	4.ryy	4G\	cu-	ra-	.	2r	.	.	2r	.	.	.
.	.	.	8GG/	-rus,	-nie,	.	.	.	.	.	.	.	.
8r	8r	8r	8r	.	.	.	.	.	.	.	.	.	.
4G 4GG\	4d 4B-/	2ryy	4G\	La-	Dzień	.	4B-\	.	.	4d\	La-	Dzień	.
4G 4GG\	4d 4B-/	.	4G\	-cry-	to	.	4B-\	.	.	4d\	-cry-	to	.
=81	=81	=81	=81	=81	=81	=81	=81	=81	=81	=81	=81	=81	=81
1G 1GG	4en/	1B-	4G\	-mo-	bę-	.	4B-\	.	.	4en\	-mo-	bę-	.
.	4c/	.	4G\	-sa	-dzie	.	4B-\	.	.	4c\	-sa	-dzie	.
.	4.d/	.	4.G\	di-	o-	.	4.B-\	.	.	4.d\	.	.	.
.	8e/	.	8G\	-es	-pła-	.	8B-\	.	.	8e\	.	.	.
*	*v	*v	*	*	*	*	*	*	*	*	*	*	*
=82	=82	=82	=82	=82	=82	=82	=82	=82	=82	=82	=82	=82
8.GL 8.GG/	8.enL 8.B-/	(8.G\L	il-	-ka-	.	(8.B-/L	.	.	(8.en\L	.	.	.
16FJk 16FF/	16fJk 16A-X/	16F\Jk)	.	.	.	16A-X/Jk)	.	.	16f\Jk)	.	.	.
4F 4FF/	4f 4A-/	4F\	-la,	-ny,	.	4A-/	.	.	4f\	.	.	.
4r	4r	4r	.	.	.	4r	.	.	4r	.	.	.
4F 4FF/	4f 4A-/	8F\	Qua	Kie-	.	8A-/	.	.	8f\	.	.	.
.	.	8F\	re-	-dy	.	8A-/	.	.	8f\	.	.	.
=83	=83	=83	=83	=83	=83	=83	=83	=83	=83	=83	=83	=83
1En 1EEn	1g 1c	4En\	-sur-	z gro-	.	4c\	.	.	4g\	.	.	.
.	.	4E\	-get	-bu	.	4c\	.	.	4g\	.	.	.
.	.	4E\	ex	po-	.	4c\	.	.	4g\	.	.	.
.	.	4E\	fa-	-wo-	.	4c\	.	.	4g\	.	.	.
!!LO:LB:g=original
=84	=84	=84	=84	=84	=84	=84	=84	=84	=84	=84	=84	=84
*	*^	*	*	*	*	*	*	*	*	*	*	*
4.F 4.FF\	4a- 4c/	2ryy	4F\	-vil-	-ła-	.	4c\	.	.	4a-\	.	.	.
.	8f 8c/	.	8F\	-la	-ny,	.	8A-/	.	.	8f\	.	.	.
8r	8r	.	8r	.	.	.	8r	.	.	8r	.	.	.
4.F 4.FF\	4.a-/	2c/	4.F\	Iu-	Sta-	.	4.c\	.	.	4.a-\	.	.	.
8G 8GG\	8g/	.	8F\	-di	-nę	.	8c\	.	.	8g\	.	.	.
=85	=85	=85	=85	=85	=85	=85	=85	=85	=85	=85	=85	=85	=85
1A- 1AA-	4f/	1c	4A-\	can-	ja-	.	4c\	.	.	4f\	.	.	.
.	4e-/	.	4A-\	-dus	-ko	.	4c\	.	.	4e-\	.	.	.
.	4d/	.	4A-\	ho-	ob-	.	4c\	.	.	4d\	.	.	.
.	4c/	.	4A-\	-mo-	-wi-	.	4c\	.	.	4c\	.	.	.
*	*v	*v	*	*	*	*	*	*	*	*	*	*	*
=86	=86	=86	=86	=86	=86	=86	=86	=86	=86	=86	=86	=86
2G 2GG\	4Bn/	4G\	-re-	-nio-	.	4Bn\	.	.	(8.Bn\L	.	.	.
.	.	.	.	.	.	.	.	.	16d\Jk)	.	.	.
.	4d 4B/	4G\	-us	-ny	.	4B\	.	.	4d\	.	.	.
4r	4r	4r	.	.	.	4r	.	.	4r	.	.	.
4G 4GG\	4d 4B/	8.G\	Hu-	Prze-	.	8.B\	.	.	8.d\	.	.	.
.	.	16G\	-ic	-bacz	.	16B\	.	.	16d\	.	.	.
=87	=87	=87	=87	=87	=87	=87	=87	=87	=87	=87	=87	=87
*	*^	*	*	*	*	*	*	*	*	*	*	*
4.C 4.CC\	4e- 4c/	2.ryy	4C/	er-	wszel-	.	4c\	.	.	4e-\	.	.	.
.	8c 8E-</	.	8C/	-go	-ki	.	8E-/	.	.	8c\	.	.	.
8r	8r	.	8r	.	.	.	8r	.	.	8r	.	.	.
4r	4r	.	4r	.	.	.	4r	.	.	4r	.	.	.
8.CL 8.CC\	8.e-/L	4c\	8.C/	par-	błąd	.	8.c\	.	.	8.e-\	.	.	.
16A-Jk 16AA-\	16g/J	.	16A-\	-ce	speł-	.	16c\	.	.	16f\	.	.	.
!!LO:PB:g=original
=88	=88	=88	=88	=88	=88	=88	=88	=88	=88	=88	=88	=88	=88
4.G 4.GG\	4g/	4.Bn\	4G\	De-	-nio-	.	4Bn\	.	.	4g\	.	.	.
.	8d/	.	8G\	-us	-ny	.	8B\	.	.	8d\	.	.	.
8r	8r	8ryy	8r	.	.	.	8r	.	.	8r	.	.	.
4r	4r	2ryy	4r	.	.	.	4r	.	.	4r	.	.	.
4G 4GG\	4d 4Bn/	.	8.G\	Pi-	Je-	.	8.B\	.	.	8.d\	.	.	.
.	.	.	16G\	-e	-zu	.	16B\	.	.	16d\	.	.	.
*	*v	*v	*	*	*	*	*	*	*	*	*	*	*
=89	=89	=89	=89	=89	=89	=89	=89	=89	=89	=89	=89	=89
*^	*	*	*	*	*	*	*	*	*	*	*	*
2ryy	2C 2CC\	4e- 4c/	4C/	Je-	łas-	.	4c\	.	.	4e-\	.	.	.
.	.	4c 4E-</	4C/	-su	-ka-	.	4E-/	.	.	4c\	.	.	.
4.E-/	2AA-\	8.c/L	4.AA-/	Do-	-wy	.	4.E-/	.	.	8.c\L	.	.	.
.	.	32d/LL	.	.	.	.	.	.	.	32d\LL	.	.	.
.	.	32c/JJJ	.	.	.	.	.	.	.	32c\JJJ	.	.	.
.	.	8Bn/L	.	.	.	.	.	.	.	8Bn\	.	.	.
8C/	.	8c/J	8AA-/	-mi-	i	.	8C/	.	.	8c\	.	.	.
*v	*v	*	*	*	*	*	*	*	*	*	*	*	*
=90	=90	=90	=90	=90	=90	=90	=90	=90	=90	=90	=90	=90
*	*^	*	*	*	*	*	*	*	*	*	*	*
2.D 2.GG/	2.Bn/	2.ryy	[>2GG/	-ne	Pa-	.	[>2D/	.	.	[<2Bn\	.	.	.
.	.	.	4GG/]	.	nie	.	4D/]	.	.	4B\]	.	.	.
8.GG/L	8.g/L	8.B\L	8.GG/	Do-	Daj	.	8.Bn\	.	.	8.g\	.	.	.
16BBn/Jk	16f/Jk	16d\Jk	16BBn/	-na	im	.	16d\	.	.	16f\	.	.	.
*	*v	*v	*	*	*	*	*	*	*	*	*	*	*
!!LO:LB:g=original
=91||	=91||	=91||	=91||	=91||	=91||	=91||	=91||	=91||	=91||	=91||	=91||	=91||
*k[]	*k[]	*k[]	*	*	*	*k[]	*	*	*k[]	*	*	*
*M3/4	*M3/4	*M3/4	*	*	*	*M3/4	*	*	*M3/4	*	*	*
*	*^	*	*	*	*	*	*	*	*	*	*	*
4.C/	2e 2c/	2ryy	4.C/	e-	wie-	.	4.c\	.	.	4.e\	.	.	.
8A 8AA\	.	.	8A\	-is	-czne	.	8c\	.	.	8e\	.	.	.
8FL 8FF\	8d/L	8c\L	8F\	Re-	spo-	.	8c\	.	.	8d\	.	.	.
8GJ 8GG\	8g/J	8B\J	8G\	-qui-	-czy-	.	8B\	.	.	8g\	.	.	.
=92	=92	=92	=92	=92	=92	=92	=92	=92	=92	=92	=92	=92	=92
4.A 4.AA\	4.e 4.c/	2ryy	[4A\	-em	-wa-	.	[4c\	.	.	[4e\	.	.	.
.	.	.	8A\]	.	-nie	.	8c\]	.	.	8e\]	.	.	.
8r	8r	.	8r	.	.	.	8r	.	.	8r	.	.	.
8.FL 8.FF\	8.d/L	4A\	8.F\	Do-	Daj	.	8.A/	.	.	8.d\	.	.	.
16F#XJk 16FF#X\	16d#X/Jk	.	16F#X\	-na	im	.	16A/	.	.	16d#X\	.	.	.
*	*v	*v	*	*	*	*	*	*	*	*	*	*	*
=93	=93	=93	=93	=93	=93	=93	=93	=93	=93	=93	=93	=93
2.G 2.GG\	2e 2c/	4.G\	e-	wie-	.	4.c\	.	.	4.e\	.	.	.
.	.	8G\	-is	-czne	.	8c\	.	.	8e\	.	.	.
.	8dL 8c/	8G\	Re-	spo-	.	8c\	.	.	8d\	.	.	.
.	8gJ 8B/	8GG/	-qui-	-czy-	.	8B\	.	.	8g\	.	.	.
=94	=94	=94	=94	=94	=94	=94	=94	=94	=94	=94	=94	=94
4.C/	4.c/	[>4C/	-em	-wa-	.	[4c\	.	.	[4c\	.	.	.
.	.	8C/]	.	-nie	.	8c\]	.	.	8c\]	.	.	.
!	!LO:TX:a:t=[segno]	!	!	!	!	!	!	!	!LO:TX:a:t=[segno]	!	!	!
8r	8r	8r	.	.	.	8r	.	.	8r	.	.	.
==	==	==	==	==	==	==	==	==	==	==	==	==
*-	*-	*-	*-	*-	*-	*-	*-	*-	*-	*-	*-	*-
!!!system-decoration: {s1,s2,s3}{(s4,s5)}
!!!RDF**kern: > = above
!!!RDF**kern: < = below
!!!ENC: Marta Lawrence
!!!END: 2021-06-10
!!!ENC: Anastazja Marusiak
!!!END: 2021-06-06
